app/client/src/assets/icons/blueprintjs/20px/hurricane.svg

<svg width="20" height="20" viewBox="0 0 20 20" fill="none" xmlns="http://www.w3.org/2000/svg">
<path fill-rule="evenodd" clip-rule="evenodd" d="M-1.82713e-05 14C1.64837 14.7751 3.00001 15 4.00001 15C3.00001 14 2.00003 11.8882 2.00003 10C2.00003 9.9942 2.00001 9.98837 1.99999 9.98254C1.99995 9.9734 1.99992 9.96426 1.99997 9.95517C1.99997 5.16933 6.20131 0.999998 11.1719 1C14.3782 1 18.0714 1.66724 20 6C18.3517 5.2249 17 5 16 5C17 6 18 8.11184 18 10L18 10.0448C18 14.8307 13.7986 19 8.82808 19C5.6218 19 1.92855 18.3328 -1.82713e-05 14ZM9.99999 7C8.34314 7 6.99999 8.34315 6.99999 10C6.99999 11.6569 8.34313 13 9.99999 13C11.6568 13 13 11.6569 13 10C13 8.34315 11.6568 7 9.99999 7Z" fill="#5C7080"/>
</svg>

<svg xmlns="http://www.w3.org/2000/svg" width="20" height="20"><path fill-rule="evenodd" d="M0 14c1.648.775 3 1 4 1-1-1-2-3.112-2-5a5.098 5.098 0 0 0 0-.045C2 5.17 6.201 1 11.172 1c3.206 0 6.9.667 8.828 5-1.648-.775-3-1-4-1 1 1 2 3.112 2 5v.045C18 14.83 13.799 19 8.828 19c-3.206 0-6.9-.667-8.828-5Zm10-7a3 3 0 1 0 0 6 3 3 0 0 0 0-6Z" clip-rule="evenodd"/></svg>
